static/assets/head_icons_png/woman/yanjing/1039587.svg

<svg xmlns="http://www.w3.org/2000/svg" width="23" height="4"><g transform="translate(-58.65 -30.4)"><path d="M60.75 31.5l-1.25-.25-.25.1-.25.25-.15-.05-.2-.05.15-.1.5-.4.35-.1.85.2.8.2.2.05.05.1-.05.25-.75-.2" fill="#ce5051"/><path d="M61.5 31.7v.1l-.3.1-.65-.25-1.05-.3-.3.25v.05l-.2-.05.25-.25.25-.1 1.25.25.75.2" fill="#8c2f2f"/><radialGradient id="a" gradientUnits="userSpaceOnUse" gradientTransform="matrix(.00174 0 0 .00168 60.1 31.25)" spreadMethod="pad" cx="0" cy="0" r="819.2" fx="0" fy="0"><stop offset="0" stop-color="#f7f7f7" stop-opacity=".514"/><stop offset="1" stop-color="#fefef7" stop-opacity=".153"/></radialGradient><path d="M61.45 31.5v.1h-.1l-.8-.2-1-.25q-.15 0-.35.2l-.3.15h-.1l.45-.4q.15-.15.35-.15l1.8.45h.05v.1" fill="url(#a)"/><linearGradient id="b" gradientUnits="userSpaceOnUse" gradientTransform="matrix(.00003 -.00047 .00064 .00005 61.9 31.8)" x1="-819.2" x2="819.2"><stop offset="0" stop-color="#706568"/><stop offset=".259" stop-color="#828a7d"/><stop offset=".588" stop-color="#8a887d"/><stop offset="1" stop-color="#fefef7"/></linearGradient><path d="M62.4 31.35q-.1.2-.05.95l-.9-.15q-.2-.45.1-.85l.85.05" fill="url(#b)"/><path d="M62.8 33.35l.05.05v.05l.05.1.1.2-.05-.05-.4-.35-.05-.6.15.35.05.05.05.1.05.15v-.05" fill="#d2cece"/><radialGradient id="c" gradientUnits="userSpaceOnUse" gradientTransform="matrix(.00385 0 0 .00311 65.8 31)" spreadMethod="pad" cx="0" cy="0" r="819.2" fx="0" fy="0"><stop offset="0" stop-color="#b69d9a"/><stop offset="1" stop-color="#d3c3bd"/></radialGradient><path d="M62.4 31.5l-.05-.15.05-.15.1-.1q.4-.45 1.4-.6 1.2-.15 3.25.05l.75.1q.65.05 1.25.5l.1.2-.05.05-.25-.1v-.05L68.5 31l-1.6-.2-2.95-.1q-1.2.05-1.5.8v.05l-.05-.05" fill="url(#c)"/><linearGradient id="d" gradientUnits="userSpaceOnUse" gradientTransform="matrix(-.0003 .00148 -.00154 -.00029 69.05 32.3)" x1="-819.2" x2="819.2"><stop offset="0" stop-color="#746d69"/><stop offset="1" stop-color="#e0d7c9"/></linearGradient><path d="M68.75 33.3l.2-.45v-.05l.15-1.15-.15-.35.25.1.05-.05v1.1l-.05.1-.55 1.2-.2.05.15-.3.15-.2" fill="url(#d)"/><radialGradient id="e" gradientUnits="userSpaceOnUse" gradientTransform="matrix(.0006 0 0 .00134 62.4 32.25)" spreadMethod="pad" cx="0" cy="0" r="819.2" fx="0" fy="0"><stop offset="0" stop-color="#746d69"/><stop offset=".945" stop-color="#e0d7c9"/></radialGradient><path d="M62.55 33.35L62.4 33l-.1-.45q-.15-1.05.1-1.35l-.05.15.05.15.05.05q-.05.75.05 1.2l.05.6" fill="url(#e)"/><radialGradient id="f" gradientUnits="userSpaceOnUse" gradientTransform="matrix(.00522 0 0 .00508 68.5 33.35)" spreadMethod="pad" cx="0" cy="0" r="819.2" fx="0" fy="0"><stop offset="0" stop-color="#a8a098"/><stop offset="1" stop-color="#efd3ba"/></radialGradient><path d="M68.75 33.3l-.15.15q-.6.55-2.95.5h-.05l-2.65-.45-.05-.05h-.05v-.05l-.05-.05v.05h.05l.15.05.35.05h.1l.7.15 2.1.15 2.05-.3.1-.05.3-.25.25-.35-.2.45" fill="url(#f)"/><radialGradient id="g" gradientUnits="userSpaceOnUse" gradientTransform="matrix(.0039 0 0 .00378 66.4 33.85)" spreadMethod="pad" cx="0" cy="0" r="819.2" fx="0" fy="0"><stop offset="0" stop-color="#fdede8"/><stop offset="1" stop-color="#f5e1d6"/></radialGradient><path d="M68.6 33.5l-.15.3-.7.2h-.05l-1.75.1h-.1L63 33.75l-.1-.2-.05-.1h.05l.05.05 2.65.45h.05q2.35.05 2.95-.5l.15-.15-.15.2" fill="url(#g)"/><linearGradient id="h" gradientUnits="userSpaceOnUse" gradientTransform="matrix(.00407 0 0 .0019 65.75 32.25)" spreadMethod="reflect" x1="-819.2" x2="819.2"><stop offset="0" stop-color="#fff" stop-opacity=".361"/><stop offset=".945" stop-color="#fefefd" stop-opacity="0"/></linearGradient><path d="M69.1 31.65l-.15 1.15v.05l-.25.35-.3.25-.1.05-2.05.3-2.1-.15-.7-.15h-.1l-.35-.05-.15-.05h-.05l-.05-.15-.05-.1-.05-.05-.15-.35q-.1-.45-.05-1.2v-.05q.3-.75 1.5-.8l2.95.1 1.6.2.45.25v.05l.15.35" fill="url(#h)"/><radialGradient id="i" gradientUnits="userSpaceOnUse" gradientTransform="matrix(.00165 0 0 .0016 68.35 31.25)" spreadMethod="pad" cx="0" cy="0" r="819.2" fx="0" fy="0"><stop offset="0" stop-color="#fff" stop-opacity=".322"/><stop offset="1" stop-color="#fff" stop-opacity="0"/></radialGradient><path d="M69 31.9q-.1-.4-.6-.7l-1.8-.4 1.95.25q.55.25.45.65v.2" fill="url(#i)"/><radialGradient id="j" gradientUnits="userSpaceOnUse" gradientTransform="matrix(.13385 0 0 .13025 17.9 -.2)" spreadMethod="pad" cx="0" cy="0" r="819.2" fx="0" fy="0"><stop offset="0" stop-color="#fff" stop-opacity=".322"/><stop offset="1" stop-color="#fff" stop-opacity="0"/></radialGradient><path d="M69.2 31.75l-.2-.5q0-.15.15.05l.1.25-.05.2m-5.6-1.2l2-.1.05.05-1.6.15-1.35.35q0-.25.9-.45m.95 3.25l1.2.2-.2.1-1.8-.25q-.6-.15-.7-.35v-.05l1.5.35" fill="url(#j)"/><path d="M79.5 31.9l-.55.2-.05-.25.05-.15h.15l.6-.2.6-.25q.15-.05.3.15l.1.05-.4.15v.05l-.8.25" fill="#ce5051"/><path d="M78.95 32.1l.55-.2.8-.25q-.15.1 0 .05-.45.2-.65.35l-.5.25q-.15.05-.2-.1v-.1" fill="#8c2f2f"/><radialGradient id="k" gradientUnits="userSpaceOnUse" gradientTransform="matrix(-.00131 0 0 .00168 80 31.7)" spreadMethod="pad" cx="0" cy="0" r="819.2" fx="0" fy="0"><stop offset="0" stop-color="#f7f7f7" stop-opacity=".514"/><stop offset="1" stop-color="#fefef7" stop-opacity=".153"/></radialGradient><path d="M79 31.95v.1h.1l.55-.2.75-.25.3.2.2.15h.1l-.35-.4-.25-.15-1.35.45H79v.1" fill="url(#k)"/><linearGradient id="l" gradientUnits="userSpaceOnUse" gradientTransform="matrix(-.00003 -.00047 -.00064 .00005 78.7 32.05)" x1="-819.2" x2="819.2"><stop offset="0" stop-color="#706568"/><stop offset=".259" stop-color="#828a7d"/><stop offset=".588" stop-color="#8a887d"/><stop offset="1" stop-color="#fefef7"/></linearGradient><path d="M78.2 31.6l.05.95.9-.15q.2-.45-.1-.85l-.85.05" fill="url(#l)"/><path d="M77.85 33.7l.05-.05h-.05l.1-.1.05-.1v-.1l.15-.3-.05.55v.05l-.4.35h-.05l.1-.15.05-.15h.05" fill="#d2cece"/><radialGradient id="m" gradientUnits="userSpaceOnUse" gradientTransform="matrix(-.0006 0 0 .00134 78.25 32.55)" spreadMethod="pad" cx="0" cy="0" r="819.2" fx="0" fy="0"><stop offset="0" stop-color="#746d69"/><stop offset=".945" stop-color="#e0d7c9"/></radialGradient><path d="M78.15 33.05l.1-1.2v-.05l.05-.15-.05-.15h.05l.1 1.35-.1.45-.15.3h-.05l.05-.55" fill="url(#m)"/><radialGradient id="n" gradientUnits="userSpaceOnUse" gradientTransform="matrix(-.00385 0 0 .00311 74.85 31.3)" spreadMethod="pad" cx="0" cy="0" r="819.2" fx="0" fy="0"><stop offset="0" stop-color="#b69d9a"/><stop offset="1" stop-color="#d3c3bd"/></radialGradient><path d="M71.5 31.65h-.1l.1-.2q.6-.45 1.25-.55l.75-.05q2.1-.2 3.3-.05 1 .1 1.4.55l.05.1v.05l.05.15-.05.15v.05-.05q-.35-.75-1.55-.8l-2.95.05-1.6.25-.4.25-.05.05-.2.05" fill="url(#n)"/><radialGradient id="o" gradientUnits="userSpaceOnUse" gradientTransform="matrix(-.0039 0 0 .00378 74.3 34.1)" spreadMethod="pad" cx="0" cy="0" r="819.2" fx="0" fy="0"><stop offset="0" stop-color="#fdede8"/><stop offset="1" stop-color="#f5e1d6"/></radialGradient><path d="M72.05 33.75q.65.55 2.95.45l.05.05 2.65-.5h.1v-.05l-.05.15-.1.15-2.85.4h-.05L73 34.3h-.05l-.75-.2-.15-.35-.1-.2.1.2" fill="url(#o)"/><radialGradient id="p" gradientUnits="userSpaceOnUse" gradientTransform="matrix(-.00522 0 0 .00508 72.2 33.65)" spreadMethod="pad" cx="0" cy="0" r="819.2" fx="0" fy="0"><stop offset="0" stop-color="#a8a098"/><stop offset="1" stop-color="#efd3ba"/></radialGradient><path d="M77.8 33.7v.05h-.1l-2.65.5-.05-.05q-2.3.1-2.95-.45l-.1-.2-.25-.4.3.3.25.3h.1l2.05.35 2.1-.2.7-.1h.1l.4-.05.1-.1h.1l-.05.05h-.05" fill="url(#p)"/><linearGradient id="q" gradientUnits="userSpaceOnUse" gradientTransform="matrix(.0003 .00148 .00154 -.00029 71.65 32.6)" x1="-819.2" x2="819.2"><stop offset="0" stop-color="#746d69"/><stop offset="1" stop-color="#e0d7c9"/></linearGradient><path d="M71.95 33.55l.1.2.15.35-.15-.1q-.45-.3-.6-1.2v-.05l-.05-1.1h.1l.2-.05-.15.35.15 1.15v.05l.25.4" fill="url(#q)"/><linearGradient id="r" gradientUnits="userSpaceOnUse" gradientTransform="matrix(-.00407 0 0 .0019 74.9 32.55)" spreadMethod="reflect" x1="-819.2" x2="819.2"><stop offset="0" stop-color="#fff" stop-opacity=".251"/><stop offset=".945" stop-color="#fefefd" stop-opacity="0"/></linearGradient><path d="M78.15 33.05l-.15.3v.1l-.05.1-.1.1h-.05l-.1.1-.4.05h-.1l-.7.1-2.1.2-2.05-.35h-.1l-.25-.3-.3-.3v-.05l-.15-1.15.15-.35.05-.05.4-.25 1.6-.25L76.7 31q1.2.05 1.55.8v.05l-.1 1.2" fill="url(#r)"/><radialGradient id="s" gradientUnits="userSpaceOnUse" gradientTransform="matrix(-.00165 0 0 .0016 72.3 31.5)" spreadMethod="pad" cx="0" cy="0" r="819.2" fx="0" fy="0"><stop offset="0" stop-color="#fff" stop-opacity=".322"/><stop offset="1" stop-color="#fff" stop-opacity="0"/></radialGradient><path d="M71.65 32.15q.1-.4.6-.7l1.8-.4-1.95.25q-.55.25-.45.65v.2" fill="url(#s)"/><radialGradient id="t" gradientUnits="userSpaceOnUse" gradientTransform="matrix(-.13385 0 0 .13025 122.75 .05)" spreadMethod="pad" cx="0" cy="0" r="819.2" fx="0" fy="0"><stop offset="0" stop-color="#fff" stop-opacity=".322"/><stop offset="1" stop-color="#fff" stop-opacity="0"/></radialGradient><path d="M71.45 32l.2-.5q0-.15-.15.05l-.1.25.05.2m5.6-1.2l-2-.1-.05.05 1.6.15q.9.1 1.35.35 0-.25-.9-.45m-.95 3.25l-1.2.2.2.1 1.8-.25.7-.35v-.05l-1.5.35" fill="url(#t)"/><linearGradient id="u" gradientUnits="userSpaceOnUse" gradientTransform="matrix(.00002 -.00037 -.00157 -.00003 69.4 31.4)" x1="-819.2" x2="819.2"><stop offset=".267" stop-color="#746d69"/><stop offset=".588" stop-color="#e0d7c9"/></linearGradient><path d="M69.2 31.55v-.05l-.05-.1.85-.15.95.05.6.2-.05.1-.05.05h-.2l-.6-.1h-1.3l-.05.05h-.05l-.05-.05" fill="url(#u)"/><linearGradient id="v" gradientUnits="userSpaceOnUse" gradientTransform="matrix(.13385 0 0 .13025 17.9 -.2)" x1="-819.2" x2="819.2"><stop offset=".251" stop-color="#fff"/><stop offset="1" stop-color="#e0d7c9"/></linearGradient><path d="M70.7 31.35l.1.05v.05l-1.05-.05h-.25l.35-.05H70.7" fill="url(#v)"/></g></svg>

<?xml version="1.0" encoding="utf-8"?>
<svg version="1.1" id="Layer_1"
xmlns="http://www.w3.org/2000/svg"
xmlns:xlink="http://www.w3.org/1999/xlink"
xmlns:author="http://www.sothink.com"
width="23px" height="4px"
xml:space="preserve">
<g id="662" transform="matrix(1, 0, 0, 1, -58.65, -30.4)">
<path style="fill:#CE5051;fill-opacity:1" d="M60.75,31.5L59.5 31.25L59.25 31.35L59 31.6L58.85 31.55L58.65 31.5L58.8 31.4L59.3 31L59.65 30.9L60.5 31.1L61.3 31.3L61.5 31.35L61.55 31.45L61.5 31.7L60.75 31.5" />
<path style="fill:#8C2F2F;fill-opacity:1" d="M61.5,31.7L61.5 31.8L61.2 31.9L60.55 31.65L59.5 31.35L59.2 31.6L59.2 31.65L59 31.6L59.25 31.35L59.5 31.25L60.75 31.5L61.5 31.7" />
<radialGradient
id="RadialGradID_5441" gradientUnits="userSpaceOnUse" gradientTransform="matrix(0.0017395, 0, 0, 0.00167847, 60.1, 31.25)" spreadMethod ="pad" cx="0" cy="0" r="819.2" fx="0" fy="0" >
<stop  offset="0"  style="stop-color:#F7F7F7;stop-opacity:0.513725" />
<stop  offset="1"  style="stop-color:#FEFEF7;stop-opacity:0.152941" />
</radialGradient>
<path style="fill:url(#RadialGradID_5441) " d="M61.45,31.5L61.45 31.6L61.35 31.6L60.55 31.4L59.55 31.15Q59.4 31.15 59.2 31.35L58.9 31.5L58.8 31.5L59.25 31.1Q59.4 30.95 59.6 30.95L61.4 31.4L61.45 31.4L61.45 31.5" />
<linearGradient
id="LinearGradID_5442" gradientUnits="userSpaceOnUse" gradientTransform="matrix(3.05176e-005, -0.000473022, 0.000640869, 4.57764e-005, 61.9, 31.8)" spreadMethod ="pad" x1="-819.2" y1="0" x2="819.2" y2="0" >
<stop  offset="0" style="stop-color:#706568;stop-opacity:1" />
<stop  offset="0.258824" style="stop-color:#828A7D;stop-opacity:1" />
<stop  offset="0.588235" style="stop-color:#8A887D;stop-opacity:1" />
<stop  offset="1" style="stop-color:#FEFEF7;stop-opacity:1" />
</linearGradient>
<path style="fill:url(#LinearGradID_5442) " d="M62.4,31.35Q62.3 31.55 62.35 32.3L61.45 32.15Q61.25 31.7 61.55 31.3L62.4 31.35" />
<path style="fill:#D2CECE;fill-opacity:1" d="M62.8,33.35L62.85 33.4L62.85 33.45L62.9 33.55L63 33.75L62.95 33.7L62.55 33.35L62.5 32.75L62.65 33.1L62.7 33.15L62.75 33.25L62.8 33.4L62.8 33.35" />
<radialGradient
id="RadialGradID_5443" gradientUnits="userSpaceOnUse" gradientTransform="matrix(0.00384521, 0, 0, 0.00311279, 65.8, 31)" spreadMethod ="pad" cx="0" cy="0" r="819.2" fx="0" fy="0" >
<stop  offset="0"  style="stop-color:#B69D9A;stop-opacity:1" />
<stop  offset="1"  style="stop-color:#D3C3BD;stop-opacity:1" />
</radialGradient>
<path style="fill:url(#RadialGradID_5443) " d="M62.4,31.5L62.35 31.35L62.4 31.2L62.5 31.1Q62.9 30.65 63.9 30.5Q65.1 30.35 67.15 30.55L67.9 30.65Q68.55 30.7 69.15 31.15L69.25 31.35L69.2 31.4L68.95 31.3L68.95 31.25L68.5 31L66.9 30.8L63.95 30.7Q62.75 30.75 62.45 31.5L62.45 31.55L62.4 31.5" />
<linearGradient
id="LinearGradID_5444" gradientUnits="userSpaceOnUse" gradientTransform="matrix(-0.000305176, 0.0014801, -0.00154114, -0.000289917, 69.05, 32.3)" spreadMethod ="pad" x1="-819.2" y1="0" x2="819.2" y2="0" >
<stop  offset="0" style="stop-color:#746D69;stop-opacity:1" />
<stop  offset="1" style="stop-color:#E0D7C9;stop-opacity:1" />
</linearGradient>
<path style="fill:url(#LinearGradID_5444) " d="M68.75,33.3L68.95 32.85L68.95 32.8L69.1 31.65L68.95 31.3L69.2 31.4L69.25 31.35L69.25 32.45L69.2 32.55L68.65 33.75L68.45 33.8L68.6 33.5L68.75 33.3" />
<radialGradient
id="RadialGradID_5445" gradientUnits="userSpaceOnUse" gradientTransform="matrix(0.000595093, 0, 0, 0.00134277, 62.4, 32.25)" spreadMethod ="pad" cx="0" cy="0" r="819.2" fx="0" fy="0" >
<stop  offset="0"  style="stop-color:#746D69;stop-opacity:1" />
<stop  offset="0.945098"  style="stop-color:#E0D7C9;stop-opacity:1" />
</radialGradient>
<path style="fill:url(#RadialGradID_5445) " d="M62.55,33.35L62.4 33L62.3 32.55Q62.15 31.5 62.4 31.2L62.35 31.35L62.4 31.5L62.45 31.55Q62.4 32.3 62.5 32.75L62.55 33.35" />
<radialGradient
id="RadialGradID_5446" gradientUnits="userSpaceOnUse" gradientTransform="matrix(0.00521851, 0, 0, 0.00508118, 68.5, 33.35)" spreadMethod ="pad" cx="0" cy="0" r="819.2" fx="0" fy="0" >
<stop  offset="0"  style="stop-color:#A8A098;stop-opacity:1" />
<stop  offset="1"  style="stop-color:#EFD3BA;stop-opacity:1" />
</radialGradient>
<path style="fill:url(#RadialGradID_5446) " d="M68.75,33.3L68.6 33.45Q68 34 65.65 33.95L65.6 33.95L62.95 33.5L62.9 33.45L62.85 33.45L62.85 33.4L62.8 33.35L62.8 33.4L62.85 33.4L63 33.45L63.35 33.5L63.45 33.5L64.15 33.65L66.25 33.8L68.3 33.5L68.4 33.45L68.7 33.2L68.95 32.85L68.75 33.3" />
<radialGradient
id="RadialGradID_5447" gradientUnits="userSpaceOnUse" gradientTransform="matrix(0.00389099, 0, 0, 0.00378418, 66.4, 33.85)" spreadMethod ="pad" cx="0" cy="0" r="819.2" fx="0" fy="0" >
<stop  offset="0"  style="stop-color:#FDEDE8;stop-opacity:1" />
<stop  offset="1"  style="stop-color:#F5E1D6;stop-opacity:1" />
</radialGradient>
<path style="fill:url(#RadialGradID_5447) " d="M68.6,33.5L68.45 33.8L67.75 34L67.7 34L65.95 34.1L65.85 34.1L63 33.75L62.9 33.55L62.85 33.45L62.9 33.45L62.95 33.5L65.6 33.95L65.65 33.95Q68 34 68.6 33.45L68.75 33.3L68.6 33.5" />
<linearGradient
id="LinearGradID_5448" gradientUnits="userSpaceOnUse" gradientTransform="matrix(0.0040741, 0, 0, 0.00189209, 65.75, 32.25)" spreadMethod ="reflect" x1="-819.2" y1="0" x2="819.2" y2="0" >
<stop  offset="0" style="stop-color:#FFFFFF;stop-opacity:0.360784" />
<stop  offset="0.945098" style="stop-color:#FEFEFD;stop-opacity:0" />
</linearGradient>
<path style="fill:url(#LinearGradID_5448) " d="M69.1,31.65L68.95 32.8L68.95 32.85L68.7 33.2L68.4 33.45L68.3 33.5L66.25 33.8L64.15 33.65L63.45 33.5L63.35 33.5L63 33.45L62.85 33.4L62.8 33.4L62.75 33.25L62.7 33.15L62.65 33.1L62.5 32.75Q62.4 32.3 62.45 31.55L62.45 31.5Q62.75 30.75 63.95 30.7L66.9 30.8L68.5 31L68.95 31.25L68.95 31.3L69.1 31.65" />
<radialGradient
id="RadialGradID_5449" gradientUnits="userSpaceOnUse" gradientTransform="matrix(0.00164795, 0, 0, 0.00160217, 68.35, 31.25)" spreadMethod ="pad" cx="0" cy="0" r="819.2" fx="0" fy="0" >
<stop  offset="0"  style="stop-color:#FFFFFF;stop-opacity:0.321569" />
<stop  offset="1"  style="stop-color:#FFFFFF;stop-opacity:0" />
</radialGradient>
<path style="fill:url(#RadialGradID_5449) " d="M69,31.9Q68.9 31.5 68.4 31.2L66.6 30.8L68.55 31.05Q69.1 31.3 69 31.7L69 31.9" />
<radialGradient
id="RadialGradID_5450" gradientUnits="userSpaceOnUse" gradientTransform="matrix(0.13385, 0, 0, 0.130249, 17.9, -0.2)" spreadMethod ="pad" cx="0" cy="0" r="819.2" fx="0" fy="0" >
<stop  offset="0"  style="stop-color:#FFFFFF;stop-opacity:0.321569" />
<stop  offset="1"  style="stop-color:#FFFFFF;stop-opacity:0" />
</radialGradient>
<path style="fill:url(#RadialGradID_5450) " d="M69.2,31.75L69 31.25Q69 31.1 69.15 31.3L69.25 31.55L69.2 31.75M63.6,30.55L65.6 30.45L65.65 30.5L64.05 30.65L62.7 31Q62.7 30.75 63.6 30.55M64.55,33.8L65.75 34L65.55 34.1L63.75 33.85Q63.15 33.7 63.05 33.5L63.05 33.45L64.55 33.8" />
<path style="fill:#CE5051;fill-opacity:1" d="M79.5,31.9L78.95 32.1L78.9 31.85L78.95 31.7L79.1 31.7L79.7 31.5L80.3 31.25Q80.45 31.2 80.6 31.4L80.7 31.45L80.3 31.6L80.3 31.65L79.5 31.9" />
<path style="fill:#8C2F2F;fill-opacity:1" d="M78.95,32.1L79.5 31.9L80.3 31.65Q80.15 31.75 80.3 31.7Q79.85 31.9 79.65 32.05L79.15 32.3Q79 32.35 78.95 32.2L78.95 32.1" />
<radialGradient
id="RadialGradID_5451" gradientUnits="userSpaceOnUse" gradientTransform="matrix(-0.00131226, 0, 0, 0.00167847, 80, 31.7)" spreadMethod ="pad" cx="0" cy="0" r="819.2" fx="0" fy="0" >
<stop  offset="0"  style="stop-color:#F7F7F7;stop-opacity:0.513725" />
<stop  offset="1"  style="stop-color:#FEFEF7;stop-opacity:0.152941" />
</radialGradient>
<path style="fill:url(#RadialGradID_5451) " d="M79,31.95L79 32.05L79.1 32.05L79.65 31.85L80.4 31.6L80.7 31.8L80.9 31.95L81 31.95L80.65 31.55L80.4 31.4L79.05 31.85L79 31.85L79 31.95" />
<linearGradient
id="LinearGradID_5452" gradientUnits="userSpaceOnUse" gradientTransform="matrix(-3.05176e-005, -0.000473022, -0.000640869, 4.57764e-005, 78.7, 32.05)" spreadMethod ="pad" x1="-819.2" y1="0" x2="819.2" y2="0" >
<stop  offset="0" style="stop-color:#706568;stop-opacity:1" />
<stop  offset="0.258824" style="stop-color:#828A7D;stop-opacity:1" />
<stop  offset="0.588235" style="stop-color:#8A887D;stop-opacity:1" />
<stop  offset="1" style="stop-color:#FEFEF7;stop-opacity:1" />
</linearGradient>
<path style="fill:url(#LinearGradID_5452) " d="M78.2,31.6L78.25 32.55L79.15 32.4Q79.35 31.95 79.05 31.55L78.2 31.6" />
<path style="fill:#D2CECE;fill-opacity:1" d="M77.85,33.7L77.9 33.65L77.85 33.65L77.95 33.55L78 33.45L78 33.35L78.15 33.05L78.1 33.6L78.1 33.65L77.7 34L77.65 34L77.75 33.85L77.8 33.7L77.85 33.7" />
<radialGradient
id="RadialGradID_5453" gradientUnits="userSpaceOnUse" gradientTransform="matrix(-0.000595093, 0, 0, 0.00134277, 78.25, 32.55)" spreadMethod ="pad" cx="0" cy="0" r="819.2" fx="0" fy="0" >
<stop  offset="0"  style="stop-color:#746D69;stop-opacity:1" />
<stop  offset="0.945098"  style="stop-color:#E0D7C9;stop-opacity:1" />
</radialGradient>
<path style="fill:url(#RadialGradID_5453) " d="M78.15,33.05L78.25 31.85L78.25 31.8L78.3 31.65L78.25 31.5L78.3 31.5L78.4 32.85L78.3 33.3L78.15 33.6L78.1 33.6L78.15 33.05" />
<radialGradient
id="RadialGradID_5454" gradientUnits="userSpaceOnUse" gradientTransform="matrix(-0.00384521, 0, 0, 0.00311279, 74.85, 31.3)" spreadMethod ="pad" cx="0" cy="0" r="819.2" fx="0" fy="0" >
<stop  offset="0"  style="stop-color:#B69D9A;stop-opacity:1" />
<stop  offset="1"  style="stop-color:#D3C3BD;stop-opacity:1" />
</radialGradient>
<path style="fill:url(#RadialGradID_5454) " d="M71.5,31.65L71.4 31.65L71.5 31.45Q72.1 31 72.75 30.9L73.5 30.85Q75.6 30.65 76.8 30.8Q77.8 30.9 78.2 31.35L78.25 31.45L78.25 31.5L78.3 31.65L78.25 31.8L78.25 31.85L78.25 31.8Q77.9 31.05 76.7 31L73.75 31.05L72.15 31.3L71.75 31.55L71.7 31.6L71.5 31.65" />
<radialGradient
id="RadialGradID_5455" gradientUnits="userSpaceOnUse" gradientTransform="matrix(-0.00389099, 0, 0, 0.00378418, 74.3, 34.1)" spreadMethod ="pad" cx="0" cy="0" r="819.2" fx="0" fy="0" >
<stop  offset="0"  style="stop-color:#FDEDE8;stop-opacity:1" />
<stop  offset="1"  style="stop-color:#F5E1D6;stop-opacity:1" />
</radialGradient>
<path style="fill:url(#RadialGradID_5455) " d="M72.05,33.75Q72.7 34.3 75 34.2L75.05 34.25L77.7 33.75L77.8 33.75L77.8 33.7L77.75 33.85L77.65 34L74.8 34.4L74.75 34.4L73 34.3L72.95 34.3L72.2 34.1L72.05 33.75L71.95 33.55L72.05 33.75" />
<radialGradient
id="RadialGradID_5456" gradientUnits="userSpaceOnUse" gradientTransform="matrix(-0.00521851, 0, 0, 0.00508118, 72.2, 33.65)" spreadMethod ="pad" cx="0" cy="0" r="819.2" fx="0" fy="0" >
<stop  offset="0"  style="stop-color:#A8A098;stop-opacity:1" />
<stop  offset="1"  style="stop-color:#EFD3BA;stop-opacity:1" />
</radialGradient>
<path style="fill:url(#RadialGradID_5456) " d="M77.8,33.7L77.8 33.75L77.7 33.75L75.05 34.25L75 34.2Q72.7 34.3 72.05 33.75L71.95 33.55L71.7 33.15L72 33.45L72.25 33.75L72.35 33.75L74.4 34.1L76.5 33.9L77.2 33.8L77.3 33.8L77.7 33.75L77.8 33.65L77.85 33.65L77.9 33.65L77.85 33.7L77.8 33.7" />
<linearGradient
id="LinearGradID_5457" gradientUnits="userSpaceOnUse" gradientTransform="matrix(0.000305176, 0.0014801, 0.00154114, -0.000289917, 71.65, 32.6)" spreadMethod ="pad" x1="-819.2" y1="0" x2="819.2" y2="0" >
<stop  offset="0" style="stop-color:#746D69;stop-opacity:1" />
<stop  offset="1" style="stop-color:#E0D7C9;stop-opacity:1" />
</linearGradient>
<path style="fill:url(#LinearGradID_5457) " d="M71.95,33.55L72.05 33.75L72.2 34.1L72.05 34Q71.6 33.7 71.45 32.8L71.45 32.75L71.4 31.65L71.5 31.65L71.7 31.6L71.55 31.95L71.7 33.1L71.7 33.15L71.95 33.55" />
<linearGradient
id="LinearGradID_5458" gradientUnits="userSpaceOnUse" gradientTransform="matrix(-0.0040741, 0, 0, 0.00189209, 74.9, 32.55)" spreadMethod ="reflect" x1="-819.2" y1="0" x2="819.2" y2="0" >
<stop  offset="0" style="stop-color:#FFFFFF;stop-opacity:0.25098" />
<stop  offset="0.945098" style="stop-color:#FEFEFD;stop-opacity:0" />
</linearGradient>
<path style="fill:url(#LinearGradID_5458) " d="M78.15,33.05L78 33.35L78 33.45L77.95 33.55L77.85 33.65L77.8 33.65L77.7 33.75L77.3 33.8L77.2 33.8L76.5 33.9L74.4 34.1L72.35 33.75L72.25 33.75L72 33.45L71.7 33.15L71.7 33.1L71.55 31.95L71.7 31.6L71.75 31.55L72.15 31.3L73.75 31.05L76.7 31Q77.9 31.05 78.25 31.8L78.25 31.85L78.15 33.05" />
<radialGradient
id="RadialGradID_5459" gradientUnits="userSpaceOnUse" gradientTransform="matrix(-0.00164795, 0, 0, 0.00160217, 72.3, 31.5)" spreadMethod ="pad" cx="0" cy="0" r="819.2" fx="0" fy="0" >
<stop  offset="0"  style="stop-color:#FFFFFF;stop-opacity:0.321569" />
<stop  offset="1"  style="stop-color:#FFFFFF;stop-opacity:0" />
</radialGradient>
<path style="fill:url(#RadialGradID_5459) " d="M71.65,32.15Q71.75 31.75 72.25 31.45L74.05 31.05L72.1 31.3Q71.55 31.55 71.65 31.95L71.65 32.15" />
<radialGradient
id="RadialGradID_5460" gradientUnits="userSpaceOnUse" gradientTransform="matrix(-0.13385, 0, 0, 0.130249, 122.75, 0.05)" spreadMethod ="pad" cx="0" cy="0" r="819.2" fx="0" fy="0" >
<stop  offset="0"  style="stop-color:#FFFFFF;stop-opacity:0.321569" />
<stop  offset="1"  style="stop-color:#FFFFFF;stop-opacity:0" />
</radialGradient>
<path style="fill:url(#RadialGradID_5460) " d="M71.45,32L71.65 31.5Q71.65 31.35 71.5 31.55L71.4 31.8L71.45 32M77.05,30.8L75.05 30.7L75 30.75L76.6 30.9Q77.5 31 77.95 31.25Q77.95 31 77.05 30.8M76.1,34.05L74.9 34.25L75.1 34.35L76.9 34.1L77.6 33.75L77.6 33.7L76.1 34.05" />
<linearGradient
id="LinearGradID_5461" gradientUnits="userSpaceOnUse" gradientTransform="matrix(1.52588e-005, -0.000366211, -0.00157166, -3.05176e-005, 69.4, 31.4)" spreadMethod ="pad" x1="-819.2" y1="0" x2="819.2" y2="0" >
<stop  offset="0.266667" style="stop-color:#746D69;stop-opacity:1" />
<stop  offset="0.588235" style="stop-color:#E0D7C9;stop-opacity:1" />
</linearGradient>
<path style="fill:url(#LinearGradID_5461) " d="M69.2,31.55L69.2 31.5L69.15 31.4L70 31.25L70.95 31.3L71.55 31.5L71.5 31.6L71.45 31.65L71.3 31.65L71.25 31.65L70.65 31.55L69.55 31.55L69.35 31.55L69.3 31.6L69.25 31.6L69.2 31.55" />
<linearGradient
id="LinearGradID_5462" gradientUnits="userSpaceOnUse" gradientTransform="matrix(0.13385, 0, 0, 0.130249, 17.9, -0.2)" spreadMethod ="pad" x1="-819.2" y1="0" x2="819.2" y2="0" >
<stop  offset="0.25098" style="stop-color:#FFFFFF;stop-opacity:1" />
<stop  offset="1" style="stop-color:#E0D7C9;stop-opacity:1" />
</linearGradient>
<path style="fill:url(#LinearGradID_5462) " d="M70.7,31.35L70.8 31.4L70.8 31.45L69.75 31.4L69.5 31.4L69.85 31.35L70.25 31.35L70.7 31.35" />
</g>
</svg>
